icon-themes/colibre_svg/cmd/ar/sc_setoutline.svg

<svg viewBox="0 0 16 16" xmlns="http://www.w3.org/2000/svg"><path d="m1.4941406 2c-.2736804 0-.4941406.2204602-.4941406.4941406v.0117188c0 .2736804.2204602.4941406.4941406.4941406h8.0117188c.2736804 0 .4941406-.2204602.4941406-.4941406v-.0117188c0-.2736804-.2204602-.4941406-.4941406-.4941406zm3.9882813 3c-.2670408 0-.4824219.2153811-.4824219.4824219v.0351562c0 .2670408.2153811.4824219.4824219.4824219h4.0351562c.2670408 0 .4824219-.2153811.4824219-.4824219v-.0351562c0-.2670408-.2153811-.4824219-.4824219-.4824219zm-3.9824219 5c-.277 0-.5.223-.5.5s.223.5.5.5h9c.277 0 .5-.223.5-.5s-.223-.5-.5-.5zm4 3c-.277 0-.5.223-.5.5s.223.5.5.5h5c.277 0 .5-.223.5-.5s-.223-.5-.5-.5z" fill="#808080"/><path d="m12.9375 1-1.9375 1.5605469.369141.46875c.01941.024061.046431.0482056.082031.0722656.038838.021053.082319.0359019.130859.0449219.048544.00902.10123.00902.15625 0 .055016-.009023.109043-.0340669.164063-.0761719l.839844-.671875c-.009661.150376-.013672.2952478-.013672.4335937v3.1679688h-1.248047v1h3.519531v-1h-1v-5zm.5625 9a1.5 1.5 0 0 0 -1.5 1.5 1.5 1.5 0 0 0 1.5 1.5 1.5 1.5 0 0 0 1.5-1.5 1.5 1.5 0 0 0 -1.5-1.5z" fill="#4d82b8"/></svg>

<svg viewBox="0 0 16 16" xmlns="http://www.w3.org/2000/svg">
  <path
     style="fill:#808080"
     d="M 1.4941406 2 C 1.2204602 2 1 2.2204602 1 2.4941406 L 1 2.5058594 C 1 2.7795398 1.2204602 3 1.4941406 3 L 9.5058594 3 C 9.7795398 3 10 2.7795398 10 2.5058594 L 10 2.4941406 C 10 2.2204602 9.7795398 2 9.5058594 2 L 1.4941406 2 z M 5.4824219 5 C 5.2153811 5 5 5.2153811 5 5.4824219 L 5 5.5175781 C 5 5.7846189 5.2153811 6 5.4824219 6 L 9.5175781 6 C 9.7846189 6 10 5.7846189 10 5.5175781 L 10 5.4824219 C 10 5.2153811 9.7846189 5 9.5175781 5 L 5.4824219 5 z M 1.5 10 C 1.223 10 1 10.223 1 10.5 C 1 10.777 1.223 11 1.5 11 L 10.5 11 C 10.777 11 11 10.777 11 10.5 C 11 10.223 10.777 10 10.5 10 L 1.5 10 z M 5.5 13 C 5.223 13 5 13.223 5 13.5 C 5 13.777 5.223 14 5.5 14 L 10.5 14 C 10.777 14 11 13.777 11 13.5 C 11 13.223 10.777 13 10.5 13 L 5.5 13 z "
     id="rect2" />
  <path
     style="fill:#4d82b8"
     d="M 12.9375 1 L 11 2.5605469 L 11.369141 3.0292969 C 11.388551 3.0533579 11.415572 3.0775025 11.451172 3.1015625 C 11.49001 3.1226155 11.533491 3.1374644 11.582031 3.1464844 C 11.630575 3.1555044 11.683261 3.1555044 11.738281 3.1464844 C 11.793297 3.1374614 11.847324 3.1124175 11.902344 3.0703125 L 12.742188 2.3984375 C 12.732527 2.5488135 12.728516 2.6936853 12.728516 2.8320312 L 12.728516 6 L 11.480469 6 L 11.480469 7 L 15 7 L 15 6 L 14 6 L 14 1 L 12.9375 1 z M 13.5 10 A 1.5 1.5 0 0 0 12 11.5 A 1.5 1.5 0 0 0 13.5 13 A 1.5 1.5 0 0 0 15 11.5 A 1.5 1.5 0 0 0 13.5 10 z "
     id="circle12" />
</svg>
